X:544070
T:Crossing the Minch
C:
H:
B: 
O:Arranged by Kevin Fraser
Z:Kevin Fraser
Q:1/4=70
M:2/4
L:1/16
K:HP
R:March
U: R = ///
U: r = //
U: V = !accent!
V:M gstem=up stem=down name="Melody" sname="Melody"
V:H gstem=up stem=down name="Harmony" sname="Harmony"
V:C gstem=up stem=down name="C-Harmony" sname=C-Harmony"
V:S gstem=up stem=down dyn=up stafflines=1 clef=perc middle=G name="Snare" sname="Snare" sname="Snare"
V:B gstem=up stem=down clef=none dyn=up name="Bass" sname="Bass"
V:T gstem=up stem=down clef=none dyn=up name="Tenor" sname="Tenor"
V:BB gstem=up stem=down name="Brass Bass" sname="ABCD-C" transpose=-1  octave=-1 clef=bass
V:BC gstem=up stem=down name="Brass Chord" sname="ABCD-D" transpose=-1
V:BD gstem=up stem=down name="Brass Chord 2" sname="ABCD-B" transpose=-1
V:P gstem=up stem=down name="Piano" octave=-1
I:MIDI=program 110
%%MIDI gracedivider 4
% %score {M (BS)}
%%MIDI program 109 #bagpipes
%%MIDI vol 100
%%landscape
[K: Dmaj]
[V:M]|:d>e|{g}f>A{gAGAG}A {g}f2{g}e>f|{gf}g>B{gBeBG}B  {gf}g2a>g|{fg}f>A{gAGAG}A {g}f2{g}e>f|{gf}g>B{g}e>d {gdc}d>c{g}d>e| $
[V:M]|{g}f>A{gAGAG}A {g}f2{g}e>f|{gf}g>B{gBeBG}B {gf}g2a>g|{fg}f>g{ag}a>f {gf}g>e{g}c>d|{gef}e2d2 {gdc}d2:| $
[V:M]|:{g}A>d|{g}f>A{gAGAG}A {g}f>g{ag}a>f|{gf}g>B{gBeBG}B {gf}g>a{g}a>g|{fg}f>A{gAGAG}A {g}f>g{ag}a>f|{gf}g>B{g}e>d {gdc}d>c{g}d>e| $
[V:M]|{g}f>A{gAGAG}A {g}f>g{ag}a>f|{gf}g>B{gBeBG}B {gf}g2a>g|{fg}f>g{ag}a>f {gf}g>e{g}c>d|{gef}e2d2 {gdc}d2:| $
[V:M]|:A>d|{g}f>A{gAGAG}A {g}f>A{g}e>f|{gf}g>B{gBeBG}B {gf}g>B{ag}a>g|{fg}f>A{gAGAG}A {g}f>A{g}e>f|{gf}g>B{g}e>d {gdc}d>c{g}d>e| $
[V:M]|{g}f>A{gAGAG}A {g}f>A{g}e>f|{gf}g>B{gBeBG}B {gf}g2a>g|{fg}f>g{ag}a>f g>ec>d|e2d2 {gdc}d2:| $
[V:M]|:A>d|{g}f>A{gAGAG}A {g}f>A{gAGAG}A|g>A{gAGAG}A g>A{gAGAG}A|{g}f>A{gAGAG}A {g}f>A{gAGAG}A|e>fe>d {gdc}d>c{g}d>e| $
[V:M]|{g}f>A{gAGAG}A {g}f>A{gAGAG}A|{gf}g>B{gBeBG}B {gf}g2a>g|{fg}f>g{ag}a>f g>ec>d|e2d2 {gdc}d2:| $

